places/16/mail-folder-outbox.svg

<?xml version="1.0" encoding="UTF-8" standalone="no"?>
<!-- Created with Inkscape (http://www.inkscape.org/) -->

<svg
   xmlns:dc="http://purl.org/dc/elements/1.1/"
   xmlns:cc="http://creativecommons.org/ns#"
   xmlns:rdf="http://www.w3.org/1999/02/22-rdf-syntax-ns#"
   xmlns:svg="http://www.w3.org/2000/svg"
   xmlns="http://www.w3.org/2000/svg"
   xmlns:sodipodi="http://sodipodi.sourceforge.net/DTD/sodipodi-0.dtd"
   xmlns:inkscape="http://www.inkscape.org/namespaces/inkscape"
   id="svg13094"
   height="16"
   width="16"
   version="1.1"
   inkscape:version="0.48.3.1 r9886"
   sodipodi:docname="mail-folder-outbox.svg">
  <defs
     id="defs3009" />
  <sodipodi:namedview
     pagecolor="#ffffff"
     bordercolor="#666666"
     borderopacity="1"
     objecttolerance="10"
     gridtolerance="10"
     guidetolerance="10"
     inkscape:pageopacity="0"
     inkscape:pageshadow="2"
     inkscape:window-width="1920"
     inkscape:window-height="1033"
     id="namedview3007"
     showgrid="true"
     inkscape:zoom="41.7193"
     inkscape:cx="9.0507981"
     inkscape:cy="8.8679105"
     inkscape:window-x="-10"
     inkscape:window-y="25"
     inkscape:window-maximized="1"
     inkscape:current-layer="svg13094"
     inkscape:snap-bbox="true"
     inkscape:bbox-paths="true"
     inkscape:bbox-nodes="true"
     inkscape:snap-bbox-edge-midpoints="true"
     inkscape:snap-bbox-midpoints="true"
     inkscape:object-paths="true"
     inkscape:snap-intersection-paths="true"
     inkscape:object-nodes="true"
     inkscape:snap-smooth-nodes="true"
     inkscape:snap-midpoints="true"
     inkscape:snap-object-midpoints="true"
     inkscape:snap-center="true">
    <inkscape:grid
       type="xygrid"
       id="grid2982" />
  </sodipodi:namedview>
  <metadata
     id="metadata13099">
    <rdf:RDF>
      <cc:Work
         rdf:about="">
        <dc:format>image/svg+xml</dc:format>
        <dc:type
           rdf:resource="http://purl.org/dc/dcmitype/StillImage" />
        <dc:title />
      </cc:Work>
    </rdf:RDF>
  </metadata>
  <path
     sodipodi:nodetypes="ccccccccccc"
     inkscape:connector-curvature="0"
     style="color:#000000;fill:#27303a;fill-opacity:0.753280819999999968;fill-rule:nonzero;stroke:none;stroke-width:4;marker:none;visibility:visible;display:inline;overflow:visible;enable-background:accumulate"
     d="m 1,7 0,7 1,0 12,0 1,0 0,-7 -2,0 0,5 -10,0 0,-5 z"
     id="path2993" />
  <path
     style="font-size:medium;font-style:normal;font-variant:normal;font-weight:normal;font-stretch:normal;text-indent:0;text-align:start;text-decoration:none;line-height:normal;letter-spacing:normal;word-spacing:normal;text-transform:none;direction:ltr;block-progression:tb;writing-mode:lr-tb;text-anchor:start;baseline-shift:baseline;color:#000000;fill:#f1f3f5;fill-opacity:0.90288714000000003;fill-rule:nonzero;stroke:none;stroke-width:2;marker:none;visibility:visible;display:inline;overflow:visible;enable-background:accumulate;font-family:Sans;-inkscape-font-specification:Sans"
     d="M 0 6 L 0 7 L 0 14 L 0 15 L 1 15 L 2 15 L 14 15 L 15 15 L 16 15 L 16 14 L 16 7 L 16 6 L 15 6 L 13 6 L 12 6 L 12 7 L 12 11 L 12 12 L 13 12 L 13 7 L 15 7 L 15 14 L 14 14 L 2 14 L 1 14 L 1 7 L 3 7 L 3 12 L 4 12 L 4 11 L 4 7 L 4 6 L 3 6 L 1 6 L 0 6 z "
     id="path3028" />
  <path
     sodipodi:nodetypes="ccccccccccccc"
     inkscape:connector-curvature="0"
     style="color:#000000;fill:#27303a;fill-opacity:0.753280819999999968;fill-rule:nonzero;stroke:none;stroke-width:2.28571415;marker:none;visibility:visible;display:inline;overflow:visible;enable-background:accumulate"
     d="m 5,5 3,-4 3,4 -2.0000002,0 0,3.9999998 L 7,8.9999998 7,5 z m 2,5 1.9999998,0 0,1 L 7,11 z"
     id="path2985" />
  <path
     inkscape:connector-curvature="0"
     style="font-size:medium;font-style:normal;font-variant:normal;font-weight:normal;font-stretch:normal;text-indent:0;text-align:start;text-decoration:none;line-height:normal;letter-spacing:normal;word-spacing:normal;text-transform:none;direction:ltr;block-progression:tb;writing-mode:lr-tb;text-anchor:start;baseline-shift:baseline;color:#000000;fill:#f1f3f5;fill-opacity:0.90288714000000003;fill-rule:nonzero;stroke:none;stroke-width:2;marker:none;visibility:visible;display:inline;overflow:visible;enable-background:accumulate;font-family:Sans;-inkscape-font-specification:Sans"
     d="M 8,-0.6564 6.9375,0.15609999 3.9375,4.1561 3.25,5 5,5 8,0.99999999 11,5 12.75,5 12.0625,4.1561 9.0624998,0.15609999 z M 6,5 6,8.9999998 6,10 l 1,0 1.9999998,0 1,0 0,-1.0000002 0,-3.9999998 -1,0 0,3.9999998 L 7,8.9999998 7,5 z m 0,6 0,1 c 1.3333333,0 2.6666665,0 3.9999998,0 l 0,-1 -1,0 L 7,11 z"
     id="path2988"
     sodipodi:nodetypes="ccccccccccccccccccccccccccccccc" />
</svg>

<?xml version="1.0" encoding="UTF-8"?>
<svg id="a" width="16" height="16" version="1.1" xmlns="http://www.w3.org/2000/svg" xmlns:cc="http://creativecommons.org/ns#" xmlns:dc="http://purl.org/dc/elements/1.1/" xmlns:rdf="http://www.w3.org/1999/02/22-rdf-syntax-ns#">
	<metadata id="d">
		<rdf:RDF>
			<cc:Work rdf:about="">
				<dc:format>image/svg+xml</dc:format>
				<dc:type rdf:resource="http://purl.org/dc/dcmitype/StillImage"/>
				<dc:title/>
			</cc:Work>
		</rdf:RDF>
	</metadata>
	<defs>
		<style id="current-color-scheme" type="text/css">.ColorScheme-Text {color:#090d11;}.ColorScheme-Background{color:#ffffff;}</style>
	</defs>
	<path id="b" d="m8 1-3 4h2v4h2v-4h2l-3-4zm-7 6v7h1 12 1v-7h-2v5h-10v-5h-2zm6 3v1h2v-1h-2z" style="fill-opacity:.75;fill:currentColor" class="ColorScheme-Text"/>
	<path id="c" d="m8-0.65625-1.0625 0.8125-3 4-0.6875 0.84375h1.75l3-4 3 4h1.75l-0.6875-0.84375-3-4-1.0625-0.8125zm-2 5.6562v4 1h1 2 1v-1-4h-1v4h-2v-4h-1zm-6 1v1 7 1h1 1 12 1 1v-1-7-1h-1-2-1v1 4 1h1v-5h2v7h-1-12-1v-7h2v5h1v-1-4-1h-1-2-1zm6 5v1h4v-1h-1-2-1z" style="fill-opacity:.5;fill:currentColor" class="ColorScheme-Background"/>
</svg>
